X: 3
T: The Boys Of The Town
R: jig
M: 6/8
L: 1/8
K: Gmaj
G3 GBd | edB dBA | G3 GBd | edB AFD |G3 GBd | edB g2 f | edB AGA | BGF G2 :|def g3 | afd edB | def g3 | afd e2 d |def g2 b | faa efg | edB AGA | BGF G2 :|


Tune 1035	Setting 14260

